X:16000
T:Stenson's Reel
S:Treoir, 1985, from Mary McNamara
M:C
I:speed 250
K:A
|:G | AFEF ABce | fece fgaf | ec ~c2 ac ~c2 | fcec BdcB |
AFEF ABce | fece fgaf | ec ~c2 acec | BdcB A3 :|
|:B | c2 Ac ecAc | B2 GB EBGB | c2 Ac ecAc | BABc dfed |
c2 Ac ecAc | B2 GB EBGB | ABcd fdaf ecBc A3 :|
